libs/icons/src/svg/dashboard-filled.svg

<svg width="16" height="16" viewBox="0 0 16 16" fill="none" xmlns="http://www.w3.org/2000/svg">
<g clip-path="url(#clip0_3_1635)">
<path d="M15.7554 6.81733L8.42203 0.817329C8.30294 0.719958 8.15385 0.666763 8.00003 0.666763C7.8462 0.666763 7.69711 0.719958 7.57803 0.817329L0.244692 6.81733C0.110909 6.93021 0.0268873 7.09117 0.0107689 7.26547C-0.00534957 7.43977 0.0477285 7.61341 0.158542 7.74891C0.269356 7.88441 0.429015 7.97089 0.603045 7.98967C0.777074 8.00846 0.951512 7.95805 1.08869 7.84933L2.00003 7.104V14.6667C2.00003 14.8435 2.07026 15.013 2.19529 15.1381C2.32031 15.2631 2.48988 15.3333 2.66669 15.3333H6.66669V11.3333H9.33336V15.3333H13.3334C13.5102 15.3333 13.6797 15.2631 13.8048 15.1381C13.9298 15.013 14 14.8435 14 14.6667V7.104L14.9114 7.84933C14.9789 7.90634 15.0572 7.94934 15.1415 7.97583C15.2259 8.00232 15.3146 8.01177 15.4027 8.00363C15.4907 7.99549 15.5762 7.96992 15.6543 7.92841C15.7323 7.8869 15.8014 7.83028 15.8573 7.76185C15.9133 7.69341 15.9551 7.61453 15.9803 7.52979C16.0055 7.44504 16.0136 7.35614 16.0041 7.26824C15.9946 7.18034 15.9677 7.09521 15.925 7.0178C15.8823 6.94039 15.8246 6.87224 15.7554 6.81733Z" fill="#202327"/>
</g>
<defs>
<clipPath id="clip0_3_1635">
<rect width="16" height="16" fill="white"/>
</clipPath>
</defs>
</svg>

<svg xmlns="http://www.w3.org/2000/svg" viewBox="0 0 17 16" class="sageicon"><path d="m15.755 6.817-7.333-6a.667.667 0 0 0-.844 0l-7.333 6a.667.667 0 0 0 .844 1.032L2 7.104v7.563a.667.667 0 0 0 .667.666h4v-4h2.666v4h4a.667.667 0 0 0 .667-.666V7.104l.911.745a.666.666 0 1 0 .844-1.032Z"/></svg>
